X: 1
T: Lark In The Clear Air
M: 3/4
L: 1/8
R: waltz
K: Gmaj
d4-dB|G3/2F/2 FG EC|D4D/2E/2F|G2 (3ABc B2|A2d2dB|
G3/2F/2 FG EC|D4DE/2F/2|(3GAB E2AF|G4DE/F/|
G3F G/2A/2B/2c/2|d4e3/2d/2|dB GA Bd/2c/2|B2A2dB|
G3/2F/2 FG EC|D4DE/2F/2|(3GAB E2AF|G6||
